!!!SOCIAL_FUNCTION:	bird dance songs
!!!PDT:	1956
!!!OTL: No_81_Bird_Dance_Song_(d).krn
!!!LANG: Non-Tone
!!!LING_GROUP: Muskogean
!!!REG: Florida
**kern
*staff1
=1-
*clefF4
*k[f#]
*M2/4
8.B\L
16B\Jk
8.B\L
16c\Jk
=2||
*M3/4
8.B\L
16B\Jk
4B\
8B\L
8A\J
=3
[2G\
8.G/L]
16BB/Jk
=4||
*M2/4
4BB/
8BB/
8r
=5||
*M3/4
8.E;\L
16E\Jk
8.E\L
16E\Jk
8.E\L
16B\Jk
=6||
*M2/4
(8B\L
8A\J)
(8A\L
8G\J)
=7
2E\
=8
4BB/
8BB/
8r
=9
8.A\L
16A\Jk
8.F#\L
16F#\Jk
=10||
*M3/4
8.F#\L
16F#\Jk
4F#\
4F#\
=11||
*M2/4
4E\
16BB/LL
16BB/JJ
8r
=12
4r
4F#\
=13||
*M3/4
4E\
16BB/LL
16BB/JJ
8r
4r
=14||
*M2/4
16E\LL
16E\J
8BB\J
8E\L
8E\J
=15
4E\
4r
=16||
*M3/4
16E\LL
16E\J
8BB\J
8E\L
8E\J
4E\
=17||
*M2/4
8B\L
8F#\J
8E\L
8F#\J
=18
8E\L
8E\J
4E\
=19
8F#\L
8E\J
4E\
=20
8B\L
8F#\J
8E\L
8F#\J
=21
16E\LK
8.E\J
8E\
8r
=22||
*M3/4
16E\LK
8.E\J
4E\
4BB;/
=23||
*M2/4
16E\LK
8E\
16E\Jk
8E\
8r
=24
16E\LK
8.E\J
4E\
=25
12B\L
12B\
12B\J
8B\L
8B\J
=26
8B\L
8B\J
8A\L
8G\J
=27
2E\
=28
4BB/
8BB/
8r
=29||
*M3/4
4E\
16E\LK
8.E\J
16E\LK
8.E\J
=30||
*M2/4
(8B\L
8A\J)
(8A\L
8F#\J)
=31
2E\
=32||
*M3/4
4BB/
4BB/
8.BB/L
16A/Jk
=33||
*M2/4
16A\LK
8.F#\J
16F#\LK
8.F#\J
=34||
*M3/4
16F#\LK
8.F#\J
4F#\
4F#\
=35||
*M2/4
4E\
16BB/LL
16BB/JJ
8r
=36
4r
4F#\
=37||
*M3/4
4E\
16BB/LL
16BB/JJ
8r
4r
=38||
*M2/4
16E\LL
16E\J
8BB\J
8E\L
8E\J
=39
4E\
4r
=40||
*M3/4
16E\LL
16E\J
8BB\J
8E\L
8E\J
4E\
=41||
*M2/4
8B\L
8F#\J
8E\L
8F#\J
=42
8E\L
8E\J
4E\
=43
8B\L
8F#\J
8E\L
8F#\J
=44
16E\LK
8.E\J
8E\
8r
=45||
*M3/4
16E\LK
8.E\J
4E\
4BB;/
=46||
*M2/4
16E\LK
8E\
16E\Jk
8E\
8r
=47
16E\LK
8.E\J
4E\
==
*-
